X: 838
T: Rocky Mountain Goat
B: jims roots
M:C|
L:1/8
Q: 1/4=100
K:D
V:1 
(A2|"D"A2)f2 fgfe|"G"B2g2gage|"D"A2f2 fgfe|"A"dcB2 AGFE|
"D"D2 f2 fgfe|"G"B2g2gagf| "A"ece2 A2c2|"D"d2dd d2:|
|:DE|"D"F2AF "G"G2BG|"D"F2e2fedB|"G"G2BG "D"F2AF|"A"EDEG FEDE|
"D"F2A2 "G"DGBG|"D"FAde fedB|"G"A2BG "D"FGAF|"A"EDEE "D"D2:|]
% abcbook-tune_id 6298c279a622897b270240f1


% abcbook-boost 0
% abcbook-tablature 
% abcbook-transpose 
% abcbook-lastupdated 1654178427069
% abcbook-soundfonts 
% abcbook-repeats 1


